X:1
T:Title
%%score ( 1 2 3 ) { ( 4 6 ) | ( 5 7 ) }
L:1/8
Q:1/4=108
M:4/4
K:D
V:1 treble nm="Grand Piano, Soprano"
V:2 treble 
V:3 treble 
V:4 bass nm="Choir Pad, Story of the Shepherd"
V:6 bass 
V:5 bass 
V:7 bass 
V:1
 A2 A2 A2 =F2 | G2 A2- A/ z/ ^A =A2 | [CA]2 [DG]2 [D=F]2 [DG]2 | z2 A6 | A2 A2 A2 =F2 | %5
w: By~Joseph~Barnby,~before~1872 * * *|||||
 G2 A2- A/ z/ ^A =A2 | d2 =c2 =F2 G2 | ^A2 =A6 | [GA]2 [Fd]2- [Fd][Fd] [Ec]2 | %9
w: ||||
 [GA]2 [Fd]2- [Fd][Fc] [Ec]2 | [GA]2 [Fd]2 [Fc]2 [^GB]2 | [^Gc]2 A2 =G2 F2 | %12
w: |||
 [EA]2 [Ad]2- [Ad][Ad] [Ac]2 | [EA]2 [Ad]2- [Ad][Ad] [Ac]2 | [AB]2 [Ae]2 [Ad]2 [AB]2 | [^Gc]2 A6 | %16
w: ||||
 A2 [GB]2 [Ge]2 [GA]2 | [FA]2 G2- G/ z/ A [DF]2 | [DF]2 [DG]2 [DG]2 [EA]2 | [FA]2 [GB]6 | %20
w: ||||
 [Gd]2 [Gc]2- [Gc][GB] [FA]2 | [Ed]2 d2- d/ z/ B [FA]2 | [FB]2 [EG]2 [DF]2 [DF]2 | [CE]2 [DA]6 | %24
w: ||||
 z2 .c4 z2 | d2 c2 B2 z2 | z4 .G2 E2- | E z z2 z4 | z8 |] %29
w: |||||
V:2
 x8 | x8 | x8 | [D^G]2 D4 C2 | x8 | x8 | x8 | x8 | x8 | x8 | x8 | x8 | x8 | x8 | x8 | x8 | x8 | %17
 z2 F2 E2 z2 | x8 | x8 | x8 | z2 E2 G2 z2 | x8 | x8 | [Dd]2 E2 z B [EA]2 | DEFA, B,C [DA]2 | %26
 [DB]2 [FA]2 D-[DF] D2 | z E D6- | D2 z2 z4 |] %29
V:3
 x8 | x8 | x8 | x8 | x8 | x8 | x8 | x8 | x8 | x8 | x8 | x8 | x8 | x8 | x8 | x8 | x8 | x8 | x8 | %19
 x8 | x8 | x8 | x8 | x8 | z4 E2 z2 | x8 | x8 | C2 z2 z4 | x8 |] %29
V:4
 A,2 A,2 A,2 =F,2 | G,2 A,2- A,/ z/ ^A, =A,2 | z4 =A,2 z2 | =F,2 F,4 E,2 | A,2 A,2 A,2 =F,2 | %5
 G,2 =F,2- F,/ z/ ^A, =A,2 | D2 =C2 =F,2 G,2 | ^A,2 =A,6 | C2 A,2- A,A, A,2 | A,2 A,2- A,A, A,2 | %10
 A,2[K:treble] F2 E2 D2 | E2 C2 D4 | C2 D2- DD E2 | C2 D2- DD E2 | F2 G2 F2 D2 | E2 C6 | %16
 z2 D2 B,2 C2 | D2 B,2 C2 D2 | A,2 D2 D2 =C2 | =C2[K:bass] B,6 | B,2 C2 E2 A,2 | B,2 C2 E2 A,2 | %22
 B,2 B,2 A,B, A,2 | A,2 A,6 | A,2 A,2 ^G,2 A,2 | F,G,A,[K:treble]C DE F2 | %26
 E2[K:bass] A,2 B,A, G,2 | G,2 F,6- | F,2 z2 z4 |] %29
V:5
 z8 | z8 | A,,2 .D,4 ^A,,2 | ^A,,2 =A,,6 | z8 | z8 | z8 | z8 | A,2 D,2- D,D, D,2 | %9
 D,2 D,2- D,D, D,2 | D,2 D,2 D,2 E,2 | E,2 A,2 B,2 A,2 | G,2 F,2- F,F, E,2 | G,2 F,2- F,F, F,2 | %14
 D,2 C,2 D,2 F,2 | E,2 A,4 z2 | C2 A,,2 A,,2 A,,2 | A,,2 A,,2 A,,2 B,,2 | =C,2 B,,2 B,,2 A,,2 | %19
 z2 G,,6 | G,,2 A,,2 C,2 D,2 | ^G,,2 A,,2 C,2 D,2 | ^D,2 E,2 F,G, z2 | G,2 F,6 | =F,2 E,2 D,2 C,2 | %25
 B,,2 A,,2 G,,2 F,,2 | G,,2 A,,2 A,,2 A,,2 | A,,2 D,6- | D,2 z2 z4 |] %29
V:6
 x8 | x8 | A,2 ^A,2 z =C, G,2 | x8 | x8 | x8 | x8 | x8 | x8 | x8 | x2[K:treble] x6 | x8 | x8 | x8 | %14
 x8 | x8 | x8 | x8 | x8 | x2[K:bass] x6 | x8 | x8 | x8 | x8 | x8 | x3[K:treble] x5 | %26
 x2[K:bass] x6 | x8 | x8 |] %29
V:7
 x8 | x8 | x8 | x8 | x8 | x8 | x8 | x8 | x8 | x8 | x8 | x8 | x8 | x8 | x8 | z4 z2 A,,2- | %16
 A,,2 z2 z4 | x8 | x8 | x8 | x8 | x8 | x8 | x8 | x8 | x8 | x8 | x8 | x8 |] %29

